X: 27090
T: Miss Lacey's
R: hornpipe
M: 4/4
K: Gmajor
|:D2|GFGA B2AG|FGAB c2BA|GFGA B2AG|FAD2 FAD2|
GFGA B2AG|FGAB c2BA|BdBG AcAF|G2B2 G2:|
|:d2|edef g2d2|edef g2d2|BdG2 BdG2|FAD2 FAD2|
edef g2d2|edef g2d2|BdBG AcAF|G2B2 G2:|

